static/logos/pipe-wordmark-color.svg

<svg width="108" height="29" viewBox="0 0 108 29" fill="none" xmlns="http://www.w3.org/2000/svg">
<g clip-path="url(#clip0_1_1674)">
<path fill-rule="evenodd" clip-rule="evenodd" d="M45.4432 29V21.6108C45.5952 21.7336 45.7368 21.8523 45.8724 21.9659C46.1658 22.2118 46.4313 22.4344 46.7152 22.6253C49.7231 24.6481 54.3165 23.9152 56.8765 20.9824C59.003 18.5452 59.5759 15.6653 59.036 12.5492C58.3076 8.37812 55.6032 5.16249 50.9621 5.00631C48.789 4.93376 46.8425 5.47483 45.3819 7.22959C45.3573 7.25973 45.3192 7.2787 45.2581 7.30907C45.2219 7.32704 45.1778 7.349 45.1236 7.37961V5.61624H40.2266V29H45.4432ZM49.6325 18.8305C47.2367 18.8317 45.2277 16.799 45.2105 14.3556H45.2118C45.3048 12.3562 46.6674 9.93122 49.5787 9.92253C50.7526 9.91759 51.8794 10.386 52.7063 11.2229C53.5333 12.0598 53.9912 13.195 53.9774 14.3741C53.9517 16.8494 52.0284 18.8292 49.6325 18.8305Z" fill="black"/>
<path fill-rule="evenodd" clip-rule="evenodd" d="M74.4254 29V21.6964C74.6466 21.8486 74.8578 22.0046 75.065 22.1577C75.5015 22.4802 75.9204 22.7896 76.3781 23.0228C79.6782 24.7016 84.1592 23.4907 86.4009 20.3283C88.2751 17.6841 88.6218 14.7453 87.8255 11.675C86.9901 8.45117 85.1392 6.05757 81.7606 5.28877C78.9579 4.65138 76.3082 4.95841 74.2748 7.33727C74.268 7.34553 74.2434 7.3391 74.2024 7.32836C74.1763 7.32153 74.1435 7.31297 74.1045 7.30534V5.64247H69.2266V29H74.4254ZM78.6124 18.8423C76.2078 18.8337 74.2037 16.8036 74.1951 14.367L74.1939 14.3658C74.2931 12.3529 75.6676 9.94569 78.5732 9.94569C79.7485 9.94036 80.8764 10.4094 81.7028 11.2471C82.5292 12.0849 82.9845 13.2208 82.966 14.3989C82.9293 16.8773 81.0171 18.8509 78.6124 18.8423Z" fill="black"/>
<path fill-rule="evenodd" clip-rule="evenodd" d="M94.2988 15.5733H107.073C107.819 11.8939 105.866 6.72905 100.684 5.33452C95.7714 4.01674 90.9468 6.70425 89.5937 11.4275C88.2067 16.2664 90.8647 21.2199 95.6194 22.6144C100.608 24.0786 105.025 21.1785 106.566 17.1957C106.562 17.1917 106.557 17.1866 106.553 17.1815C106.544 17.1714 106.536 17.1614 106.528 17.1614C106.151 17.1606 105.774 17.1586 105.397 17.1565C104.244 17.1504 103.093 17.1442 101.941 17.1709C101.595 17.1839 101.265 17.3142 101.007 17.5393C99.9238 18.5831 98.6431 18.8901 97.1849 18.654C95.565 18.3883 94.3085 17.0564 94.2988 15.5733ZM97.6509 9.31855C99.9395 9.15442 101.678 10.2573 102.04 12.169H94.4268C94.4654 10.8737 95.8837 9.4449 97.6509 9.31855Z" fill="black"/>
<path d="M0.230248 28.9997V28.534C0.230248 22.7048 0.221955 16.8756 0.230248 11.0417C0.236171 8.02783 2.24417 5.54464 5.18213 5.09669C6.47341 4.90049 7.818 5.0636 9.22656 5.0636V5.55409C9.22656 11.2848 9.22656 17.0155 9.22656 22.7462C9.22656 26.4101 6.64163 28.9808 2.97037 28.9938C2.09016 29.0021 1.20285 28.9997 0.230248 28.9997Z" fill="black"/>
<path d="M12.2266 18.9703V0.000282126C13.8953 0.0873748 15.558 -0.208741 17.1709 0.373536C19.5462 1.21411 21.1613 3.52881 21.2061 6.15649C21.2382 8.2716 21.2251 10.3867 21.2168 12.5018C21.2014 16.1099 18.9001 18.7227 15.4749 18.9716C14.4139 19.0363 13.3458 18.9703 12.2266 18.9703Z" fill="black"/>
<path d="M66.2266 23H61.2266V6H66.2266V23Z" fill="black"/>
<path d="M66.2266 0V4H61.2266V0H66.2266Z" fill="black"/>
</g>
<defs>
<clipPath id="clip0_1_1674">
<rect width="108" height="29" fill="white"/>
</clipPath>
</defs>
</svg>

<svg xmlns="http://www.w3.org/2000/svg" width="238.345" height="64" fill="none" viewBox="0 0 108 29"><g fill="#000" clip-path="url(#a)"><path fill-rule="evenodd" d="M45.443 29v-7.39c.152.124.294.242.43.356.293.246.558.468.842.66 3.008 2.022 7.601 1.29 10.161-1.644 2.127-2.437 2.7-5.317 2.16-8.433-.728-4.17-3.433-7.387-8.074-7.543-2.173-.072-4.12.469-5.58 2.224a.364.364 0 0 1-.124.08c-.036.017-.08.039-.134.07V5.616h-4.897V29h5.216Zm4.19-10.17c-2.396.002-4.405-2.031-4.422-4.474.094-2 1.456-4.425 4.368-4.433a4.37 4.37 0 0 1 3.127 1.3 4.41 4.41 0 0 1 1.271 3.151c-.025 2.475-1.949 4.455-4.344 4.457ZM74.425 29v-7.304c.222.153.433.309.64.462.436.322.855.632 1.313.865 3.3 1.679 7.781.468 10.023-2.695 1.874-2.644 2.22-5.583 1.425-8.653-.836-3.224-2.687-5.617-6.065-6.386-2.803-.638-5.453-.33-7.486 2.048-.007.009-.032.002-.073-.009a1.537 1.537 0 0 0-.097-.023V5.642h-4.878V29h5.198Zm4.187-10.158c-2.404-.008-4.408-2.038-4.417-4.475l-.001-.001c.1-2.013 1.474-4.42 4.38-4.42a4.368 4.368 0 0 1 3.129 1.301 4.39 4.39 0 0 1 1.263 3.152c-.037 2.478-1.949 4.452-4.354 4.443ZM94.299 15.573h12.774c.746-3.68-1.207-8.844-6.389-10.238-4.913-1.318-9.737 1.37-11.09 6.093-1.387 4.838 1.27 9.792 6.025 11.186 4.989 1.465 9.406-1.436 10.947-5.418a.166.166 0 0 1-.013-.015c-.009-.01-.017-.02-.025-.02a328 328 0 0 1-1.131-.005c-1.153-.006-2.304-.012-3.456.015a1.507 1.507 0 0 0-.934.368c-1.083 1.044-2.364 1.351-3.822 1.115-1.62-.266-2.877-1.598-2.886-3.08ZM97.65 9.32c2.288-.165 4.027.938 4.389 2.85h-7.613c.038-1.295 1.457-2.724 3.224-2.85Z" clip-rule="evenodd"/><path d="M.23 29v-.466c0-5.83-.008-11.658 0-17.492.006-3.014 2.014-5.497 4.952-5.945 1.291-.197 2.636-.033 4.045-.033v17.682c0 3.664-2.585 6.235-6.257 6.248-.88.008-1.767.006-2.74.006ZM12.227 18.97V0c1.668.087 3.331-.209 4.944.374 2.375.84 3.99 3.155 4.035 5.782.032 2.116.02 4.23.01 6.346-.015 3.608-2.316 6.22-5.741 6.47-1.061.064-2.13-.002-3.248-.002ZM66.227 23h-5V6h5v17ZM66.227 0v4h-5V0h5Z"/></g><defs><clipPath id="a"><path fill="#fff" d="M0 0h108v29H0z"/></clipPath></defs></svg>
